public/imgs/Enterprises/InfinixQA/logo-security.svg

<svg width="244" height="27" viewBox="0 0 244 27" fill="none" xmlns="http://www.w3.org/2000/svg">
<path d="M33.9595 0.826172C30.3202 0.826172 27.0379 2.39748 24.741 4.90293L28.8522 11.1665C29.7373 9.20917 31.6933 7.84575 33.9595 7.84575C37.056 7.84575 39.5749 10.389 39.5749 13.5154C39.5749 16.6418 37.056 19.1851 33.9595 19.1851C31.8658 19.1851 30.1344 17.9634 29.0728 16.303C23.6647 7.84575 24.4803 9.03503 22.7301 6.27579C22.305 5.60488 21.7943 4.90968 21.6659 4.77333C19.3756 2.34348 16.1441 0.826172 12.5677 0.826172C5.63808 0.826172 0 6.51878 0 13.5154C0 20.512 5.63808 26.2046 12.5677 26.2046C16.2257 26.2046 19.5227 24.6185 21.821 22.0914L17.7378 15.7279C16.8822 17.7582 14.8874 19.1851 12.5677 19.1851C9.47123 19.1851 6.95234 16.6418 6.95234 13.5154C6.95234 10.389 9.47123 7.84575 12.5677 7.84575C14.6333 7.84575 16.3848 9.01343 17.417 10.6617C21.6592 17.4302 22.0536 17.9553 23.8893 20.8333C24.3626 21.5744 25.1274 22.5396 25.3774 22.7759C27.6249 24.9006 30.6438 26.2046 33.9595 26.2046C40.8891 26.2046 46.5272 20.512 46.5272 13.5154C46.5272 6.51878 40.8891 0.826172 33.9595 0.826172Z" fill="#C0C4D7"/>
<path d="M58.8889 26.7637V2.00455H63.4087V26.7637H58.8889ZM67.8054 26.7637V8.68453H71.8932V12.2405L71.5608 11.6091C71.9818 10.5235 72.6686 9.7037 73.6213 9.1498C74.5962 8.57375 75.7261 8.28573 77.0112 8.28573C78.3405 8.28573 79.5148 8.57375 80.5339 9.1498C81.5753 9.72586 82.3839 10.5345 82.96 11.5759C83.536 12.595 83.8241 13.7804 83.8241 15.1319V26.7637H79.4705V16.1621C79.4705 15.3645 79.3154 14.6777 79.0052 14.1016C78.695 13.5256 78.263 13.0825 77.7091 12.7723C77.1773 12.4399 76.5459 12.2738 75.8147 12.2738C75.1058 12.2738 74.4743 12.4399 73.9204 12.7723C73.3665 13.0825 72.9345 13.5256 72.6243 14.1016C72.3141 14.6777 72.159 15.3645 72.159 16.1621V26.7637H67.8054ZM89.5992 26.7637V12.5729H86.4088V8.68453H89.5992V8.08632C89.5992 6.71267 89.8762 5.54949 90.4301 4.59678C91.0061 3.62193 91.8037 2.87971 92.8229 2.37013C93.842 1.86054 95.0495 1.60575 96.4454 1.60575C96.7112 1.60575 96.9992 1.62791 97.3094 1.67222C97.6418 1.69437 97.9187 1.72761 98.1403 1.77192V5.52733C97.9187 5.48302 97.7082 5.46086 97.5088 5.46086C97.3316 5.43871 97.1654 5.42763 97.0103 5.42763C96.0355 5.42763 95.2822 5.64919 94.7504 6.0923C94.2187 6.51326 93.9528 7.17794 93.9528 8.08632V8.68453H101.862V12.5729H93.9528V26.7637H89.5992ZM100.234 26.7637V8.68453H104.621V26.7637H100.234ZM108.244 26.7637V8.68453H112.332V12.2405L112 11.6091C112.42 10.5235 113.107 9.7037 114.06 9.1498C115.035 8.57375 116.165 8.28573 117.45 8.28573C118.779 8.28573 119.953 8.57375 120.973 9.1498C122.014 9.72586 122.823 10.5345 123.399 11.5759C123.975 12.595 124.263 13.7804 124.263 15.1319V26.7637H119.909V16.1621C119.909 15.3645 119.754 14.6777 119.444 14.1016C119.134 13.5256 118.702 13.0825 118.148 12.7723C117.616 12.4399 116.985 12.2738 116.253 12.2738C115.544 12.2738 114.913 12.4399 114.359 12.7723C113.805 13.0825 113.373 13.5256 113.063 14.1016C112.753 14.6777 112.598 15.3645 112.598 16.1621V26.7637H108.244ZM127.944 26.7637V8.68453H132.298V26.7637H127.944ZM127.944 6.65728V2.00455H132.298V6.65728H127.944ZM134.689 26.7637L141.003 17.6909L134.656 8.68453H139.774L144.726 15.9959H142.433L147.384 8.68453H152.469L146.155 17.6909L152.436 26.7637H147.351L142.466 19.4855H144.692L139.807 26.7637H134.689Z" fill="#0D011C"/>
<path d="M175.401 10.5552C174.765 10.5552 174.168 10.4424 173.612 10.2168C173.057 9.98315 172.569 9.65686 172.15 9.23791C171.739 8.81897 171.417 8.32751 171.183 7.76354C170.95 7.19152 170.833 6.57116 170.833 5.90246C170.833 5.2257 170.95 4.60533 171.183 4.04137C171.417 3.4774 171.739 2.98595 172.15 2.567C172.569 2.14805 173.052 1.82579 173.6 1.6002C174.156 1.37461 174.756 1.26182 175.401 1.26182C176.046 1.26182 176.642 1.37864 177.19 1.61228C177.746 1.83787 178.229 2.16014 178.64 2.57908C179.059 2.98997 179.385 3.4774 179.619 4.04137C179.86 4.60533 179.981 5.2257 179.981 5.90246C179.981 6.57116 179.86 7.19152 179.619 7.76354C179.385 8.32751 179.059 8.81897 178.64 9.23791C178.229 9.65686 177.746 9.98315 177.19 10.2168C176.642 10.4424 176.046 10.5552 175.401 10.5552ZM175.401 9.45544C175.901 9.45544 176.356 9.36682 176.767 9.18957C177.178 9.00427 177.532 8.75048 177.83 8.42822C178.136 8.0979 178.37 7.71923 178.531 7.29223C178.7 6.85717 178.785 6.39391 178.785 5.90246C178.785 5.411 178.7 4.95177 178.531 4.52477C178.37 4.09776 178.136 3.72313 177.83 3.40086C177.532 3.07054 177.178 2.81676 176.767 2.63951C176.356 2.45421 175.901 2.36155 175.401 2.36155C174.91 2.36155 174.458 2.45421 174.047 2.63951C173.637 2.81676 173.278 3.07054 172.972 3.40086C172.674 3.72313 172.44 4.09776 172.271 4.52477C172.102 4.95177 172.017 5.411 172.017 5.90246C172.017 6.39391 172.102 6.85717 172.271 7.29223C172.44 7.71923 172.674 8.0979 172.972 8.42822C173.278 8.75048 173.637 9.00427 174.047 9.18957C174.458 9.36682 174.91 9.45544 175.401 9.45544ZM177.83 11.4978L174.761 6.80883H176.066L179.147 11.4978H177.83ZM184.971 10.5552C184.319 10.5552 183.739 10.4182 183.231 10.1443C182.732 9.87036 182.341 9.49573 182.059 9.02038C181.785 8.53698 181.648 7.98913 181.648 7.37682V1.40684H182.845V7.35265C182.845 7.76354 182.933 8.13012 183.11 8.45239C183.296 8.7666 183.545 9.01233 183.86 9.18957C184.182 9.36682 184.553 9.45544 184.971 9.45544C185.39 9.45544 185.757 9.36682 186.071 9.18957C186.393 9.01233 186.643 8.7666 186.82 8.45239C187.006 8.13012 187.098 7.76354 187.098 7.35265V1.40684H188.295V7.37682C188.295 7.98913 188.154 8.53698 187.872 9.02038C187.598 9.49573 187.211 9.87036 186.712 10.1443C186.212 10.4182 185.632 10.5552 184.971 10.5552ZM189.135 10.4102L192.362 1.40684H193.764L196.99 10.4102H195.721L194.984 8.29528H191.141L190.404 10.4102H189.135ZM191.516 7.20763H194.61L192.893 2.26487H193.232L191.516 7.20763ZM198.125 10.4102V1.40684H199.309V9.32251H203.261V10.4102H198.125ZM204.592 10.4102V1.40684H205.776V10.4102H204.592ZM209.35 10.4102V2.49449H206.908V1.40684H212.951V2.49449H210.546V10.4102H209.35ZM216.34 10.4102V6.28918L213.222 1.40684H214.564L217.174 5.50365H216.691L219.289 1.40684H220.63L217.537 6.28918V10.4102H216.34ZM170.229 25.4102L173.455 16.4068H174.857L178.084 25.4102H176.815L176.078 23.2953H172.235L171.498 25.4102H170.229ZM172.609 22.2076H175.703L173.987 17.2649H174.325L172.609 22.2076ZM182.194 25.5552C181.622 25.5552 181.098 25.4504 180.623 25.241C180.148 25.0234 179.745 24.7294 179.415 24.3588C179.084 23.9882 178.847 23.5732 178.702 23.114L179.729 22.691C179.946 23.2711 180.269 23.7183 180.696 24.0325C181.131 24.3386 181.638 24.4917 182.218 24.4917C182.573 24.4917 182.883 24.4353 183.149 24.3225C183.415 24.2097 183.62 24.0526 183.765 23.8512C183.918 23.6417 183.995 23.4 183.995 23.1261C183.995 22.7474 183.886 22.4493 183.668 22.2318C183.459 22.0062 183.149 21.837 182.738 21.7242L181.082 21.2167C180.43 21.0152 179.93 20.697 179.584 20.262C179.237 19.8269 179.064 19.3274 179.064 18.7634C179.064 18.272 179.181 17.8409 179.415 17.4703C179.656 17.0917 179.987 16.7976 180.406 16.5881C180.833 16.3706 181.316 16.2618 181.856 16.2618C182.396 16.2618 182.883 16.3585 183.318 16.5519C183.761 16.7452 184.136 17.0071 184.442 17.3374C184.748 17.6597 184.974 18.0303 185.119 18.4492L184.104 18.8722C183.91 18.3646 183.62 17.9819 183.233 17.7241C182.847 17.4582 182.391 17.3253 181.868 17.3253C181.546 17.3253 181.26 17.3817 181.01 17.4945C180.768 17.5992 180.579 17.7563 180.442 17.9658C180.313 18.1672 180.248 18.4089 180.248 18.6909C180.248 19.0212 180.353 19.3153 180.563 19.5731C180.772 19.8309 181.09 20.0283 181.517 20.1653L183.028 20.6124C183.737 20.8299 184.273 21.1401 184.635 21.543C184.998 21.9458 185.179 22.4453 185.179 23.0415C185.179 23.533 185.05 23.968 184.792 24.3467C184.543 24.7253 184.192 25.0234 183.741 25.241C183.298 25.4504 182.782 25.5552 182.194 25.5552ZM190.007 25.5552C189.435 25.5552 188.911 25.4504 188.436 25.241C187.96 25.0234 187.558 24.7294 187.227 24.3588C186.897 23.9882 186.659 23.5732 186.514 23.114L187.542 22.691C187.759 23.2711 188.081 23.7183 188.508 24.0325C188.943 24.3386 189.451 24.4917 190.031 24.4917C190.386 24.4917 190.696 24.4353 190.962 24.3225C191.227 24.2097 191.433 24.0526 191.578 23.8512C191.731 23.6417 191.808 23.4 191.808 23.1261C191.808 22.7474 191.699 22.4493 191.481 22.2318C191.272 22.0062 190.962 21.837 190.551 21.7242L188.895 21.2167C188.242 21.0152 187.743 20.697 187.396 20.262C187.05 19.8269 186.877 19.3274 186.877 18.7634C186.877 18.272 186.994 17.8409 187.227 17.4703C187.469 17.0917 187.799 16.7976 188.218 16.5881C188.645 16.3706 189.129 16.2618 189.668 16.2618C190.208 16.2618 190.696 16.3585 191.131 16.5519C191.574 16.7452 191.949 17.0071 192.255 17.3374C192.561 17.6597 192.786 18.0303 192.931 18.4492L191.916 18.8722C191.723 18.3646 191.433 17.9819 191.046 17.7241C190.659 17.4582 190.204 17.3253 189.681 17.3253C189.358 17.3253 189.072 17.3817 188.823 17.4945C188.581 17.5992 188.391 17.7563 188.255 17.9658C188.126 18.1672 188.061 18.4089 188.061 18.6909C188.061 19.0212 188.166 19.3153 188.375 19.5731C188.585 19.8309 188.903 20.0283 189.33 20.1653L190.841 20.6124C191.55 20.8299 192.085 21.1401 192.448 21.543C192.811 21.9458 192.992 22.4453 192.992 23.0415C192.992 23.533 192.863 23.968 192.605 24.3467C192.355 24.7253 192.005 25.0234 191.554 25.241C191.111 25.4504 190.595 25.5552 190.007 25.5552ZM197.989 25.5552C197.336 25.5552 196.756 25.4182 196.249 25.1443C195.749 24.8704 195.358 24.4957 195.076 24.0204C194.802 23.537 194.665 22.9891 194.665 22.3768V16.4068H195.862V22.3527C195.862 22.7635 195.95 23.1301 196.128 23.4524C196.313 23.7666 196.563 24.0123 196.877 24.1896C197.199 24.3668 197.57 24.4554 197.989 24.4554C198.408 24.4554 198.774 24.3668 199.089 24.1896C199.411 24.0123 199.661 23.7666 199.838 23.4524C200.023 23.1301 200.116 22.7635 200.116 22.3527V16.4068H201.312V22.3768C201.312 22.9891 201.171 23.537 200.889 24.0204C200.615 24.4957 200.229 24.8704 199.729 25.1443C199.23 25.4182 198.649 25.5552 197.989 25.5552ZM203.259 25.4102V16.4068H206.437C207.033 16.4068 207.557 16.5196 208.008 16.7452C208.459 16.9708 208.81 17.2931 209.059 17.712C209.317 18.131 209.446 18.6224 209.446 19.1864C209.446 19.8229 209.285 20.3627 208.963 20.8058C208.64 21.2489 208.205 21.5671 207.657 21.7605L209.748 25.4102H208.37L206.171 21.5067L206.957 21.9659H204.443V25.4102H203.259ZM204.443 20.8783H206.473C206.828 20.8783 207.138 20.8098 207.404 20.6728C207.67 20.5359 207.875 20.3385 208.02 20.0807C208.173 19.8229 208.25 19.5248 208.25 19.1864C208.25 18.84 208.173 18.5419 208.02 18.2921C207.875 18.0343 207.67 17.8369 207.404 17.6999C207.138 17.563 206.828 17.4945 206.473 17.4945H204.443V20.8783ZM210.225 25.4102L213.451 16.4068H214.853L218.08 25.4102H216.811L216.074 23.2953H212.231L211.494 25.4102H210.225ZM212.605 22.2076H215.699L213.983 17.2649H214.322L212.605 22.2076ZM219.214 25.4102V16.4068H220.205L225.378 23.682L224.931 23.7303V16.4068H226.127V25.4102H225.136L219.988 18.0867L220.399 18.0383V25.4102H219.214ZM232.282 25.5552C231.645 25.5552 231.057 25.4424 230.517 25.2168C229.986 24.9832 229.518 24.6569 229.115 24.2379C228.721 23.819 228.415 23.3275 228.197 22.7635C227.979 22.1996 227.871 21.5832 227.871 20.9145C227.871 20.2378 227.979 19.6174 228.197 19.0535C228.415 18.4895 228.721 17.998 229.115 17.5791C229.51 17.1601 229.978 16.8379 230.517 16.6123C231.057 16.3786 231.645 16.2618 232.282 16.2618C232.902 16.2618 233.458 16.3706 233.949 16.5881C234.449 16.8056 234.868 17.0876 235.206 17.4341C235.553 17.7805 235.798 18.1511 235.943 18.5459L234.856 19.0414C234.646 18.5419 234.32 18.139 233.877 17.8329C233.434 17.5187 232.902 17.3616 232.282 17.3616C231.653 17.3616 231.093 17.5106 230.602 17.8087C230.119 18.1068 229.74 18.5217 229.466 19.0535C229.192 19.5852 229.055 20.2056 229.055 20.9145C229.055 21.6155 229.192 22.2318 229.466 22.7635C229.74 23.2953 230.119 23.7102 230.602 24.0083C231.093 24.3064 231.653 24.4554 232.282 24.4554C232.902 24.4554 233.434 24.3024 233.877 23.9962C234.32 23.682 234.646 23.2751 234.856 22.7756L235.943 23.2711C235.798 23.6659 235.553 24.0365 235.206 24.3829C234.868 24.7294 234.449 25.0114 233.949 25.2289C233.458 25.4464 232.902 25.5552 232.282 25.5552ZM237.554 25.4102V16.4068H243.416V17.4945H238.739V20.3465H243.174V21.4342H238.739V24.3225H243.416V25.4102H237.554Z" fill="#0D011C"/>
<path d="M161.939 0.828125L161.939 26.2066" stroke="#0D011C" stroke-width="0.4834"/>
</svg>

<svg xmlns="http://www.w3.org/2000/svg" width="244" height="27" fill="none"><path fill="#C0C4D7" d="M33.96.826c-3.64 0-6.922 1.571-9.219 4.077l4.111 6.263c.885-1.957 2.841-3.32 5.107-3.32 3.097 0 5.616 2.543 5.616 5.67 0 3.126-2.519 5.67-5.616 5.67-2.093 0-3.825-1.223-4.886-2.883-5.408-8.457-4.593-7.268-6.343-10.027-.425-.671-.936-1.366-1.064-1.503-2.29-2.43-5.522-3.947-9.098-3.947C5.638.826 0 6.52 0 13.516c0 6.996 5.638 12.689 12.568 12.689 3.658 0 6.955-1.586 9.253-4.114l-4.083-6.363c-.856 2.03-2.85 3.457-5.17 3.457-3.097 0-5.616-2.543-5.616-5.67 0-3.126 2.52-5.67 5.616-5.67 2.065 0 3.817 1.168 4.849 2.817 4.242 6.768 4.637 7.293 6.472 10.171.474.741 1.238 1.707 1.488 1.943a12.457 12.457 0 0 0 8.582 3.429c6.93 0 12.568-5.693 12.568-12.69C46.527 6.52 40.89.826 33.96.826Z"/><path fill="#0D011C" d="M58.889 26.764V2.004h4.52v24.76h-4.52Zm8.916 0V8.684h4.088v3.557l-.332-.632c.42-1.085 1.108-1.905 2.06-2.46.975-.575 2.105-.863 3.39-.863 1.33 0 2.504.288 3.523.864a6.086 6.086 0 0 1 2.426 2.426c.576 1.019.864 2.204.864 3.556v11.632h-4.353V16.162c0-.797-.156-1.484-.466-2.06a3.258 3.258 0 0 0-1.296-1.33c-.532-.332-1.163-.498-1.894-.498-.71 0-1.34.166-1.895.498-.553.31-.986.754-1.296 1.33-.31.576-.465 1.262-.465 2.06v10.602h-4.354Zm21.794 0V12.573h-3.19V8.685h3.19v-.599c0-1.373.277-2.537.831-3.49a5.663 5.663 0 0 1 2.393-2.226c1.019-.51 2.227-.764 3.622-.764.266 0 .554.022.864.066.333.022.61.056.831.1v3.755a3.224 3.224 0 0 0-.631-.066 4.032 4.032 0 0 0-.499-.033c-.975 0-1.728.221-2.26.664-.531.421-.797 1.086-.797 1.994v.599h7.909v3.888h-7.91v14.19H89.6Zm10.635 0V8.684h4.387v18.08h-4.387Zm8.01 0V8.684h4.088v3.557l-.332-.632c.42-1.085 1.107-1.905 2.06-2.46.975-.575 2.105-.863 3.39-.863 1.329 0 2.503.288 3.523.864a6.088 6.088 0 0 1 2.426 2.426c.576 1.019.864 2.204.864 3.556v11.632h-4.354V16.162c0-.797-.155-1.484-.465-2.06a3.256 3.256 0 0 0-1.296-1.33c-.532-.332-1.163-.498-1.895-.498-.709 0-1.34.166-1.894.498-.554.31-.986.754-1.296 1.33-.31.576-.465 1.262-.465 2.06v10.602h-4.354Zm19.7 0V8.684h4.354v18.08h-4.354Zm0-20.107V2.005h4.354v4.652h-4.354Zm6.745 20.107 6.314-9.073-6.347-9.006h5.118l4.952 7.31h-2.293l4.951-7.31h5.085l-6.314 9.006 6.281 9.073h-5.085l-4.885-7.279h2.226l-4.885 7.279h-5.118ZM175.401 10.555a4.715 4.715 0 0 1-1.789-.338 4.537 4.537 0 0 1-1.462-.98 4.596 4.596 0 0 1-.967-1.473 4.887 4.887 0 0 1-.35-1.862c0-.676.117-1.297.35-1.86a4.596 4.596 0 0 1 .967-1.475 4.4 4.4 0 0 1 1.45-.967 4.743 4.743 0 0 1 1.801-.338c.645 0 1.241.117 1.789.35a4.24 4.24 0 0 1 1.45.967c.419.411.745.898.979 1.462.241.564.362 1.185.362 1.861 0 .67-.121 1.29-.362 1.862a4.499 4.499 0 0 1-.979 1.474 4.39 4.39 0 0 1-1.45.979 4.653 4.653 0 0 1-1.789.338Zm0-1.1c.5 0 .955-.088 1.366-.265a3.25 3.25 0 0 0 1.063-.762c.306-.33.54-.709.701-1.136.169-.435.254-.898.254-1.39 0-.491-.085-.95-.254-1.377a3.31 3.31 0 0 0-.701-1.124 3.031 3.031 0 0 0-1.063-.761 3.285 3.285 0 0 0-1.366-.278c-.491 0-.943.092-1.354.278a3.16 3.16 0 0 0-1.075.76 3.578 3.578 0 0 0-.701 1.125 3.71 3.71 0 0 0-.254 1.377c0 .492.085.955.254 1.39.169.427.403.806.701 1.136.306.322.665.576 1.075.762.411.177.863.265 1.354.265Zm2.429 2.043-3.069-4.69h1.305l3.081 4.69h-1.317Zm7.141-.943c-.652 0-1.232-.137-1.74-.41a3.029 3.029 0 0 1-1.172-1.125c-.274-.483-.411-1.03-.411-1.643v-5.97h1.197v5.946c0 .41.088.777.265 1.1.186.314.435.56.75.737.322.177.693.265 1.111.265.419 0 .786-.088 1.1-.265.322-.178.572-.423.749-.738a2.16 2.16 0 0 0 .278-1.1V1.408h1.197v5.97a3.2 3.2 0 0 1-.423 1.643c-.274.476-.661.85-1.16 1.124-.5.274-1.08.411-1.741.411Zm4.164-.145 3.227-9.003h1.402l3.226 9.003h-1.269l-.737-2.115h-3.843l-.737 2.115h-1.269Zm2.381-3.202h3.094l-1.717-4.943h.339l-1.716 4.943Zm6.609 3.202V1.407h1.184v7.916h3.952v1.087h-5.136Zm6.467 0V1.407h1.184v9.003h-1.184Zm4.758 0V2.494h-2.442V1.407h6.043v1.087h-2.405v7.916h-1.196Zm6.99 0V6.29l-3.118-4.883h1.342l2.61 4.097h-.483l2.598-4.097h1.341l-3.093 4.882v4.121h-1.197Zm-46.111 15 3.226-9.003h1.402l3.227 9.003h-1.269l-.737-2.115h-3.843l-.737 2.115h-1.269Zm2.38-3.202h3.094l-1.716-4.943h.338l-1.716 4.943Zm9.585 3.347a3.853 3.853 0 0 1-1.571-.314 3.606 3.606 0 0 1-1.208-.882 3.377 3.377 0 0 1-.713-1.245l1.027-.423c.217.58.54 1.027.967 1.341.435.307.942.46 1.522.46.355 0 .665-.057.931-.17.266-.112.471-.27.616-.47.153-.21.23-.452.23-.726 0-.379-.109-.677-.327-.894-.209-.226-.519-.395-.93-.508l-1.656-.507c-.652-.202-1.152-.52-1.498-.955a2.336 2.336 0 0 1-.52-1.499c0-.491.117-.922.351-1.293.241-.378.572-.672.991-.882.427-.217.91-.326 1.45-.326.54 0 1.027.096 1.462.29a3.32 3.32 0 0 1 1.124.785c.306.323.532.693.677 1.112l-1.015.423c-.194-.507-.484-.89-.871-1.148-.386-.266-.842-.399-1.365-.399-.322 0-.608.057-.858.17a1.257 1.257 0 0 0-.568.47 1.316 1.316 0 0 0-.194.726c0 .33.105.624.315.882.209.258.527.455.954.592l1.511.447c.709.218 1.245.528 1.607.931.363.403.544.902.544 1.498 0 .492-.129.927-.387 1.306a2.55 2.55 0 0 1-1.051.894c-.443.21-.959.314-1.547.314Zm7.813 0a3.853 3.853 0 0 1-1.571-.314 3.61 3.61 0 0 1-1.209-.882 3.391 3.391 0 0 1-.713-1.245l1.028-.423c.217.58.539 1.027.966 1.341.435.307.943.46 1.523.46.355 0 .665-.057.931-.17.265-.112.471-.27.616-.47.153-.21.23-.452.23-.726 0-.379-.109-.677-.327-.894-.209-.226-.519-.395-.93-.508l-1.656-.507c-.653-.202-1.152-.52-1.499-.955a2.34 2.34 0 0 1-.519-1.499c0-.491.117-.922.35-1.293a2.45 2.45 0 0 1 .991-.882 3.151 3.151 0 0 1 1.45-.326c.54 0 1.028.096 1.463.29a3.32 3.32 0 0 1 1.124.785c.306.323.531.693.676 1.112l-1.015.423c-.193-.507-.483-.89-.87-1.148-.387-.266-.842-.399-1.365-.399a2.06 2.06 0 0 0-.858.17 1.252 1.252 0 0 0-.568.47 1.316 1.316 0 0 0-.194.726c0 .33.105.624.314.882.21.258.528.455.955.592l1.511.447c.709.218 1.244.528 1.607.931s.544.902.544 1.498c0 .492-.129.927-.387 1.306-.25.378-.6.676-1.051.894-.443.21-.959.314-1.547.314Zm7.982 0c-.653 0-1.233-.137-1.74-.41a3.025 3.025 0 0 1-1.173-1.125c-.274-.483-.411-1.03-.411-1.643v-5.97h1.197v5.946c0 .41.088.777.266 1.1.185.314.435.56.749.737a2.27 2.27 0 0 0 1.112.265c.419 0 .785-.088 1.1-.265.322-.178.572-.423.749-.738a2.17 2.17 0 0 0 .278-1.1v-5.945h1.196v5.97c0 .612-.141 1.16-.423 1.643-.274.476-.66.85-1.16 1.124-.499.274-1.08.411-1.74.411Zm5.27-.145v-9.003h3.178c.596 0 1.12.113 1.571.338.451.226.802.548 1.051.967.258.419.387.91.387 1.474 0 .637-.161 1.177-.483 1.62a2.671 2.671 0 0 1-1.306.954l2.091 3.65h-1.378l-2.199-3.903.786.459h-2.514v3.444h-1.184Zm1.184-4.532h2.03c.355 0 .665-.068.931-.205.266-.137.471-.334.616-.592a1.72 1.72 0 0 0 .23-.895 1.68 1.68 0 0 0-.23-.894 1.456 1.456 0 0 0-.616-.592 2.007 2.007 0 0 0-.931-.206h-2.03v3.384Zm5.782 4.532 3.226-9.003h1.402l3.227 9.003h-1.269l-.737-2.115h-3.843l-.737 2.115h-1.269Zm2.38-3.202h3.094l-1.716-4.943h.339l-1.717 4.943Zm6.609 3.202v-9.003h.991l5.173 7.275-.447.048v-7.323h1.196v9.003h-.991l-5.148-7.323.411-.049v7.372h-1.185Zm13.068.145a4.532 4.532 0 0 1-1.765-.338 4.368 4.368 0 0 1-1.402-.98c-.394-.418-.7-.91-.918-1.473a5.086 5.086 0 0 1-.326-1.85c0-.676.108-1.297.326-1.86a4.489 4.489 0 0 1 .918-1.475 4.057 4.057 0 0 1 1.402-.967 4.395 4.395 0 0 1 1.765-.35c.62 0 1.176.109 1.667.326.5.218.919.5 1.257.846.347.346.592.717.737 1.112l-1.087.495a2.72 2.72 0 0 0-.979-1.208c-.443-.314-.975-.471-1.595-.471-.629 0-1.189.149-1.68.447a3.093 3.093 0 0 0-1.136 1.244c-.274.532-.411 1.153-.411 1.861 0 .701.137 1.318.411 1.85.274.531.653.946 1.136 1.244.491.298 1.051.447 1.68.447.62 0 1.152-.153 1.595-.459.443-.314.769-.72.979-1.22l1.087.495c-.145.395-.39.765-.737 1.112a3.909 3.909 0 0 1-1.257.846c-.491.217-1.047.326-1.667.326Zm5.272-.145v-9.003h5.862v1.087h-4.677v2.852h4.435v1.088h-4.435v2.889h4.677v1.087h-5.862Z"/><path stroke="#0D011C" stroke-width=".483" d="M161.939.828v25.379"/></svg>
